X: 112
T: O Venus bant
%%abc-version 2.0
%%abcx-abcm2ps-target-version 5.9.1 (29 Sep 2008)
%%abc-creator hum2abc beta
%%abcx-conversion-date 2022/03/06 13:05:55
%%abc-copyright Copyright 2018, Kolb, Paul
%%abc-edited-by Zybina, Karina
%%humdrum-veritas 1355510187
%%humdrum-veritas-data 4224254005
%%linebreak <none>
%%barnumbers 0
L: 1/8
M: 4/4
N: Derived from Gas0507.2-O_Venus_bant_Spinacino.krn
%%staves {1 2}
V: 1 clef=treble
V: 2 clef=bass
K: F
[V:1] c2>B2G2A2- & C8 | 
[V:2] C,2>D,2E,2F,2- | 
[V:1] A2=B2BAB2 & D4D4 | 
[V:2] F,2G,2G,F,G,2 | 
[V:1] c4G2A2 & C8 | 
[V:2] A,2>B,2 CB,C2 | 
[V:1] G2c2>d2e2 | 
[V:2] CD_E6 | 
[V:1] fedc2<=B2A & F4D4 | 
[V:2] D2B,A,G,4 | 
[V:1] c4c4 & C8 | 
[V:2] C,2F,2F,G,A,2 | 
[V:1] c2>B2A2G2 & z4C4 | 
[V:2] F,4A,B,C2 | 
[V:1] A2F2f4 & F4F2F2 | 
[V:2] F,2B,2B,2D2 | 
[V:1] d4dcde & F2D2F4 | 
[V:2] B,8 | 
[V:1] f4d4 & D4D4- | 
[V:2] F2B,2B,CD_E | 
[V:1] fedcB4 & D4D4 | 
[V:2] D2G,2G,A,B,C | 
[V:1] d2d6 & F4F4 | 
[V:2] B,2B,,2B,,C,D,E, | 
[V:1] A4c2cB & C4C4 | 
[V:2] F,2>E,2C,2C,D, | 
[V:1] G2B2Bcd2 & z4G4 | 
[V:2] E,F,G,4B,2 | 
[V:1] c6e2- & EDEFG4 | 
[V:2] C4C2C2 | 
[V:1] e2dc=B2BA & D8 | 
[V:2] B,2B,A, G,F,G,2 | 
[V:1] c4c4 & C8 | 
[V:2] C,2>D,2E,2F,2 | 
[V:1] z4c4 & C8 | 
[V:2] C,2F,2F,G,A,2 | 
[V:1] c4c4 | 
[V:2] A,B,C2CB,A,2 | 
[V:1] d4d4 & G4G4 | 
[V:2] G,2B,2B,A,B,2 | 
[V:1] c4c2f2- & A4A4- | 
[V:2] F,2A,2FEF2 | 
[V:1] f2ede4 & A4G4 | 
[V:2] C6C2 | 
[V:1] f2>e2c2d2 & F8 | 
[V:2] D4A,2B,2 | 
[V:1] c2d4cB | 
[V:2] F,2B,3C3 | 
[V:1] A2d6 & F8 | 
[V:2] DC2<B,2C D_E | 
[V:1] d4d4 & F4F4 | 
[V:2] D4D2B,,2 | 
[V:1] d4d4 & F4F4 | 
[V:2] B,,2B,,2B,,C,D,E, | 
[V:1] A6cB & C4C4 | 
[V:2] F,4F,2C,2 | 
[V:1] cde2f2d2- & z4F4 | 
[V:2] z2C2D2B,2 | 
[V:1] d2c=Bc4 & E4E4 | 
[V:2] C6C2 | 
[V:1] d4d4 & D4D4 | 
[V:2] G,4G,2F,E, | 
[V:1] f4f2fe & D4D4 | 
[V:2] D2D4F2 | 
[V:1] d4d2cB & z4D4 | 
[V:2] FEDCB,2A,G, | 
[V:1] A2ABc2d2 & F4F4 | 
[V:2] F,2F,G,A,2B,2 | 
[V:1] def2fedc & D8 | 
[V:2] B,CD2DCB,A, | 
[V:1] =B4B2c2- & G4G4 | 
[V:2] G,F,E,D, E,C,CD | 
[V:1] c2=B2c4 & z4C4 | 
[V:2] ECG2C,D,E,C, | 
[V:1] =B2c4B2 & D4D4 | 
[V:2] G,2F,2G,4 | 
[V:1] !fermata!c8 & !fermata!C8 |]  
[V:2] !fermata!C,8 |]  


